tools/download-figma-icons/icons/solid/surf-fon.svg

<svg width="24" height="24" viewBox="0 0 24 24" fill="none" xmlns="http://www.w3.org/2000/svg">
<path d="M22.5 10.5H21.75V4.02C21.75 3.045 20.955 2.25 19.98 2.25H4.02C3.045 2.25 2.25 3.045 2.25 4.02V14.25H0.75C0.3375 14.25 0 14.5875 0 15V16.1775C0 17.595 1.155 18.75 2.5725 18.75H16.5V21C16.5 21.825 17.175 22.5 18 22.5H22.5C23.325 22.5 24 21.825 24 21V12C24 11.175 23.325 10.5 22.5 10.5ZM22.5 21H18V12H22.5V21ZM1.5 16.1775V15.75H9.435L9.9675 16.2825C10.11 16.4175 10.2975 16.5 10.5 16.5H13.5C13.7025 16.5 13.89 16.4175 14.0325 16.2825L14.565 15.75H16.5V17.25H2.5725C1.98 17.25 1.5 16.77 1.5 16.1775Z" fill="black"/>
</svg>

<svg xmlns="http://www.w3.org/2000/svg" width="24" height="24" fill="none" viewBox="0 0 24 24"><path fill="currentColor" d="M22.5 10.5h-.75V4.02c0-.975-.795-1.77-1.77-1.77H4.02c-.975 0-1.77.795-1.77 1.77v10.23H.75A.75.75 0 0 0 0 15v1.177a2.577 2.577 0 0 0 2.573 2.573H16.5V21c0 .825.675 1.5 1.5 1.5h4.5c.825 0 1.5-.675 1.5-1.5v-9c0-.825-.675-1.5-1.5-1.5m0 10.5H18v-9h4.5zm-21-4.823v-.427h7.935l.532.532c.143.136.33.218.533.218h3c.203 0 .39-.082.533-.218l.532-.532H16.5v1.5H2.573c-.593 0-1.073-.48-1.073-1.073"/></svg>
